X: 809
T: Polska efter Lo Margit
R: Polska
Z: Håkan Lidén, 2008-12-06
B: Svenska Låtar Hälsingland
N: Sv. L. Hä. 333
N: Finns på [[http://www.smus.se/earkiv/fmk/browselarge.php?lang=sw&katalogid=Hs+17&bildnr=00017|SMUS]]
O: Delsbo, Hälsingland
S: efter Margit Lo
S: efter Erik Ljung
M: 3/4
L: 1/8
K: D
|:A>A d>d fa | ag ee ce | g/f/e/f/ dd Bd |1 d<c A4 :|2 d<c A3 =c ||[K: Ddor]
|: cB GG Bd | d/^c/B/c/ AA [^F2D2] | cB GG Bd | d/^c/B/c/ AA [^F2D2] |
dB GG Be | d<^c A3 A:| A^c de f/e/f/g/ | a^c d4 |]
(:musicend:)
Variant hörd nyligen i Delsbo...
(:music:)
